public/img/src/camera.svg

<svg viewBox="0 0 512 416" xmlns:xlink="http://www.w3.org/1999/xlink">
    <g stroke="none" stroke-width="1" fill="none" fill-rule="evenodd">
        <path d="M152,240 C152,297.438 198.562,344 256,344 C313.438,344 360,297.438 360,240 C360,182.562 313.438,136 256,136 C198.562,136 152,182.562 152,240 L152,240 Z M480,64 L368,64 C360,32 352,0 320,0 L192,0 C160,0 152,32 144,64 L32,64 C14.4,64 0,78.4 0,96 L0,384 C0,401.6 14.4,416 32,416 L480,416 C497.6,416 512,401.6 512,384 L512,96 C512,78.4 497.6,64 480,64 L480,64 Z M256,382 C177.575,382 114,318.426 114,240 C114,161.574 177.575,98 256,98 C334.426,98 398,161.575 398,240 C398,318.425 334.427,382 256,382 Z M457,148 C470.807119,148 482,136.807119 482,123 C482,109.192881 470.807119,98 457,98 C443.192881,98 432,109.192881 432,123 C432,136.807119 443.192881,148 457,148 Z" fill="#000000"></path>
    </g>
</svg>

<svg viewBox="0 0 512 416">
  <path d="M152 240c0 57.4 46.6 104 104 104s104-46.6 104-104-46.6-104-104-104-104 46.6-104 104zM480 64H368c-8-32-16-64-48-64H192c-32 0-40 32-48 64H32C14.4 64 0 78.4 0 96v288c0 17.6 14.4 32 32 32h448c17.6 0 32-14.4 32-32V96c0-17.6-14.4-32-32-32zM256 382c-78.4 0-142-63.6-142-142S177.6 98 256 98s142 63.6 142 142-63.6 142-142 142zm201-234c13.8 0 25-11.2 25-25s-11.2-25-25-25-25 11.2-25 25 11.2 25 25 25z" fill="#000" fill-rule="evenodd"/>
</svg>
